; generated by Slic3r 1.3.0 on 2023-08-29 at 19:41:51

; external perimeters extrusion width = 0.55mm (4.37mm^3/s)
; perimeters extrusion width = 0.70mm (11.44mm^3/s)
; infill extrusion width = 0.63mm (13.45mm^3/s)
; solid infill extrusion width = 0.70mm (3.81mm^3/s)
; top infill extrusion width = 0.70mm (2.86mm^3/s)

M107
M104 S200 ; set temperature
G28 ; home all axes
G1 Z5 F5000 ; lift nozzle

; Filament gcode

M109 S200 ; set temperature and wait for it to be reached
G21 ; set units to millimeters
G90 ; use absolute coordinates
M82 ; use absolute distances for extrusion
G92 E0
G1 Z0.350 F7800.000
G1 E-2.00000 F2400.00000
G92 E0
G1 X-8.615 Y46.326 F7800.000
G1 E2.00000 F2400.00000
G1 F1800
G1 X100.800 Y44.425 E5.38596
G1 X208.500 Y44.425 E8.71834
G1 X209.792 Y44.552 E8.75852
G1 X210.175 Y44.629 E8.77060
G1 X212.563 Y45.618 E8.85058
G1 X212.888 Y45.835 E8.86265
G1 X214.716 Y47.662 E8.94263
G1 X214.933 Y47.988 E8.95473
G1 X215.921 Y50.375 E9.03468
G1 X215.998 Y50.760 E9.04685
G1 X216.125 Y52.050 E9.08694
G1 X216.125 Y147.950 E12.05421
G1 X215.998 Y149.243 E12.09440
G1 X215.921 Y149.625 E12.10647
G1 X214.932 Y152.013 E12.18645
G1 X214.716 Y152.338 E12.19852
G1 X212.888 Y154.165 E12.27850
G1 X212.561 Y154.384 E12.29066
G1 X210.175 Y155.371 E12.37056
G1 X209.792 Y155.448 E12.38263
G1 X208.500 Y155.575 E12.42281
G1 X100.679 Y155.574 E15.75894
G1 X-8.621 Y153.574 E19.14139
G1 X-9.792 Y153.448 E19.17784
G1 X-10.176 Y153.371 E19.18995
G1 X-12.563 Y152.382 E19.26989
G1 X-12.888 Y152.165 E19.28198
G1 X-14.715 Y150.338 E19.36195
G1 X-14.933 Y150.013 E19.37404
G1 X-15.921 Y147.625 E19.45400
G1 X-15.998 Y147.242 E19.46609
G1 X-16.125 Y145.950 E19.50626
G1 X-16.125 Y53.950 E22.35286
G1 X-15.998 Y52.658 E22.39304
G1 X-15.921 Y52.275 E22.40512
G1 X-14.932 Y49.887 E22.48510
G1 X-14.715 Y49.562 E22.49718
G1 X-12.888 Y47.734 E22.57715
G1 X-12.563 Y47.518 E22.58923
G1 X-10.175 Y46.529 E22.66920
G1 X-9.792 Y46.452 E22.68128
G1 X-8.690 Y46.334 E22.71559
G1 E20.71559 F2400.00000
G92 E0
G1 X101.625 Y81.975 F7800.000
G1 E2.00000 F2400.00000
G1 F1800
G1 X119.525 Y81.975 E2.55385
G1 X119.525 Y52.725 E3.45888
G1 X189.575 Y52.725 E5.62632
G1 X189.575 Y81.975 E6.53135
G1 X207.375 Y81.975 E7.08210
G1 X207.375 Y118.675 E8.21764
G1 X189.575 Y118.675 E8.76840
G1 X189.575 Y147.175 E9.65023
G1 X101.625 Y147.175 E12.37151
G1 X101.625 Y144.975 E12.43957
G1 X119.525 Y144.975 E12.99342
G1 X119.525 Y117.675 E13.83813
G1 X103.696 Y117.675 E14.32790
G1 X103.596 Y117.695 E14.33104
G1 X103.080 Y118.468 E14.35982
G1 X101.625 Y118.027 E14.40685
G1 X101.625 Y82.050 E15.52002
G1 X102.250 Y82.600 F7800.000
G1 F1800
G1 X119.466 Y82.600 E16.05269
G1 X119.746 Y82.544 E16.06154
G1 X119.955 Y82.405 E16.06930
G1 X120.094 Y82.196 E16.07707
G1 X120.150 Y81.916 E16.08592
G1 X120.150 Y53.350 E16.96978
G1 X188.950 Y53.350 E19.09854
G1 X188.950 Y81.916 E19.98239
G1 X189.006 Y82.196 E19.99124
G1 X189.145 Y82.405 E19.99901
G1 X189.354 Y82.544 E20.00677
G1 X189.634 Y82.600 E20.01563
G1 X206.750 Y82.600 E20.54520
G1 X206.750 Y118.050 E21.64207
G1 X189.634 Y118.050 E22.17165
G1 X189.354 Y118.106 E22.18050
G1 X189.145 Y118.245 E22.18827
G1 X189.006 Y118.454 E22.19603
G1 X188.950 Y118.734 E22.20488
G1 X188.950 Y146.550 E23.06553
G1 X102.250 Y146.550 E25.74814
G1 X102.250 Y145.600 E25.77754
G1 X120.150 Y145.600 E26.33139
G1 X120.150 Y117.734 E27.19358
G1 X120.095 Y117.459 E27.20226
G1 X119.931 Y117.229 E27.21101
G1 X119.746 Y117.106 E27.21789
G1 X119.466 Y117.050 E27.22674
G1 X103.634 Y117.050 E27.71657
G1 X103.354 Y117.106 E27.72543
G1 X103.145 Y117.245 E27.73319
G1 X102.818 Y117.736 E27.75143
G1 X102.250 Y117.563 E27.76979
G1 X102.250 Y82.675 E28.84928
G1 X102.247 Y82.100 F7800.000
G1 X101.400 Y81.350 F7800.000
G1 F1800
G1 X101.400 Y52.650 E29.73731
G1 X118.900 Y52.650 E30.27880
G1 X118.900 Y81.350 E31.16683
G1 X101.475 Y81.350 E31.70599
G1 E29.70599 F2400.00000
G92 E0
G1 X103.342 Y119.201 F7800.000
G1 E2.00000 F2400.00000
G1 F1800
G1 X103.944 Y118.300 E2.03352
G1 X118.900 Y118.300 E2.49629
G1 X118.900 Y144.350 E3.30233
G1 X101.400 Y144.350 E3.84382
G1 X101.400 Y118.611 E4.64021
G1 X103.270 Y119.179 E4.70068
G1 E2.70068 F2400.00000
G92 E0
G1 X190.200 Y119.300 F7800.000
G1 E2.00000 F2400.00000
G1 F1800
G1 X207.900 Y119.300 E2.54768
G1 X207.900 Y147.350 E3.41559
G1 X190.200 Y147.350 E3.96327
G1 X190.200 Y119.375 E4.82886
G1 E2.82886 F2400.00000
G92 E0
G1 X190.200 Y81.350 F7800.000
G1 E2.00000 F2400.00000
G1 F1800
G1 X190.200 Y52.650 E2.88803
G1 X207.900 Y52.650 E3.43570
G1 X207.900 Y81.350 E4.32373
G1 X190.275 Y81.350 E4.86909
G1 E2.86909 F2400.00000
G92 E0
G1 X208.525 Y52.025 F7800.000
G1 E2.00000 F2400.00000
G1 F1800
G1 X208.525 Y147.975 E4.96883
G1 X100.775 Y147.975 E8.30276
G1 X100.775 Y52.025 E11.27159
G1 X208.450 Y52.025 E14.60320
G1 E12.60320 F2400.00000
G92 E0
G1 X208.955 Y148.405 F7800.000
G1 E2.00000 F2400.00000
G1 F1800
G1 X208.746 Y148.544 E2.00776
G1 X208.466 Y148.600 E2.01662
G1 X100.834 Y148.600 E5.34686
G1 X100.554 Y148.544 E5.35571
G1 X100.345 Y148.405 E5.36348
G1 X100.206 Y148.196 E5.37124
G1 X100.150 Y147.916 E5.38010
G1 X100.150 Y52.084 E8.34523
G1 X100.206 Y51.804 E8.35409
G1 X100.345 Y51.595 E8.36185
G1 X100.554 Y51.456 E8.36962
G1 X100.834 Y51.400 E8.37847
G1 X208.466 Y51.400 E11.70871
G1 X208.741 Y51.455 E11.71739
G1 X208.955 Y51.596 E11.72535
G1 X209.094 Y51.804 E11.73308
G1 X209.150 Y52.084 E11.74193
G1 X209.150 Y147.916 E14.70707
G1 X209.094 Y148.196 E14.71592
G1 X208.996 Y148.342 E14.72137
G1 X208.712 Y148.341 F7800.000
G1 E12.72137 F2400.00000
G92 E0
G1 X207.032 Y146.968 F7800.000
G1 E2.00000 F2400.00000
G1 F1800
G1 X207.518 Y146.482 E2.02169
G1 X207.518 Y145.581 E2.05012
G1 X206.131 Y146.968 E2.11201
G1 X205.230 Y146.968 E2.14044
G1 X207.518 Y144.680 E2.24254
G1 X207.518 Y143.779 E2.27096
G1 X204.329 Y146.968 E2.41326
G1 X203.428 Y146.968 E2.44169
G1 X207.518 Y142.878 E2.62419
G1 X207.518 Y141.977 E2.65262
G1 X202.527 Y146.968 E2.87532
G1 X201.626 Y146.968 E2.90374
G1 X207.518 Y141.076 E3.16665
G1 X207.518 Y140.175 E3.19508
G1 X200.725 Y146.968 E3.49818
G1 X199.824 Y146.968 E3.52661
G1 X207.518 Y139.274 E3.86992
G1 X207.518 Y138.373 E3.89834
G1 X198.923 Y146.968 E4.28185
G1 X198.022 Y146.968 E4.31028
G1 X207.518 Y137.472 E4.73399
G1 X207.518 Y136.570 E4.76242
G1 X197.120 Y146.968 E5.22633
G1 X196.219 Y146.968 E5.25476
G1 X207.518 Y135.669 E5.75888
G1 X207.518 Y134.768 E5.78730
G1 X195.318 Y146.968 E6.33162
G1 X194.417 Y146.968 E6.36005
G1 X207.518 Y133.867 E6.94457
G1 X207.518 Y132.966 E6.97299
G1 X193.516 Y146.968 E7.59772
G1 X192.615 Y146.968 E7.62614
G1 X207.518 Y132.065 E8.29107
G1 X207.518 Y131.164 E8.31949
G1 X191.714 Y146.968 E9.02462
G1 X190.813 Y146.968 E9.05305
G1 X207.518 Y130.263 E9.79838
G1 X207.518 Y129.362 E9.82680
G1 X190.582 Y146.299 E10.58245
G1 X190.582 Y145.398 E10.61088
G1 X207.518 Y128.461 E11.36653
G1 X207.518 Y127.560 E11.39496
G1 X190.582 Y144.497 E12.15061
G1 X190.582 Y143.596 E12.17904
G1 X207.518 Y126.659 E12.93469
G1 X207.518 Y125.758 E12.96312
G1 X190.582 Y142.694 E13.71877
G1 X190.582 Y141.793 E13.74720
G1 X207.518 Y124.857 E14.50285
G1 X207.518 Y123.956 E14.53128
G1 X190.582 Y140.892 E15.28693
G1 X190.582 Y139.991 E15.31536
G1 X207.518 Y123.055 E16.07101
G1 X207.518 Y122.153 E16.09944
G1 X190.582 Y139.090 E16.85509
G1 X190.582 Y138.189 E16.88351
G1 X207.518 Y121.252 E17.63917
G1 X207.518 Y120.351 E17.66759
G1 X190.582 Y137.288 E18.42325
G1 X190.582 Y136.387 E18.45167
G1 X207.287 Y119.682 E19.19700
G1 X206.386 Y119.682 E19.22543
G1 X190.582 Y135.486 E19.93056
G1 X190.582 Y134.585 E19.95898
G1 X205.485 Y119.682 E20.62391
G1 X204.584 Y119.682 E20.65234
G1 X190.582 Y133.684 E21.27706
G1 X190.582 Y132.783 E21.30549
G1 X203.683 Y119.682 E21.89001
G1 X202.782 Y119.682 E21.91843
G1 X190.582 Y131.882 E22.46275
G1 X190.582 Y130.981 E22.49118
G1 X201.881 Y119.682 E22.99530
G1 X200.980 Y119.682 E23.02372
G1 X190.582 Y130.080 E23.48764
G1 X190.582 Y129.178 E23.51607
G1 X200.078 Y119.682 E23.93978
G1 X199.177 Y119.682 E23.96821
G1 X190.582 Y128.277 E24.35172
G1 X190.582 Y127.376 E24.38015
G1 X198.276 Y119.682 E24.72345
G1 X197.375 Y119.682 E24.75188
G1 X190.582 Y126.475 E25.05499
G1 X190.582 Y125.574 E25.08342
G1 X196.474 Y119.682 E25.34632
G1 X195.573 Y119.682 E25.37475
G1 X190.582 Y124.673 E25.59745
G1 X190.582 Y123.772 E25.62588
G1 X194.672 Y119.682 E25.80838
G1 X193.771 Y119.682 E25.83681
G1 X190.582 Y122.871 E25.97911
G1 X190.582 Y121.970 E26.00753
G1 X192.870 Y119.682 E26.10963
G1 X191.969 Y119.682 E26.13806
G1 X190.582 Y121.069 E26.19995
G1 X190.582 Y120.168 E26.22838
G1 X191.068 Y119.682 E26.25007
G1 E24.25007 F2400.00000
G92 E0
G1 X207.950 Y118.987 F7800.000
G1 E2.00000 F2400.00000
G1 F1800
G1 X207.950 Y81.663 E2.83207
G1 X207.032 Y80.968 F7800.000
G1 F1800
G1 X207.518 Y80.482 E2.85364
G1 X207.518 Y79.586 E2.88175
G1 X206.136 Y80.968 E2.94306
G1 X205.240 Y80.968 E2.97117
G1 X207.518 Y78.690 E3.07223
G1 X207.518 Y77.794 E3.10033
G1 X204.344 Y80.968 E3.24114
G1 X203.448 Y80.968 E3.26924
G1 X207.518 Y76.898 E3.44980
G1 X207.518 Y76.002 E3.47790
G1 X202.552 Y80.968 E3.69820
G1 X201.657 Y80.968 E3.72630
G1 X207.518 Y75.107 E3.98635
G1 X207.518 Y74.211 E4.01445
G1 X200.761 Y80.968 E4.31425
G1 X199.865 Y80.968 E4.34235
G1 X207.518 Y73.315 E4.68189
G1 X207.518 Y72.419 E4.70999
G1 X198.969 Y80.968 E5.08928
G1 X198.073 Y80.968 E5.11738
G1 X207.518 Y71.523 E5.53641
G1 X207.518 Y70.627 E5.56452
G1 X197.177 Y80.968 E6.02329
G1 X196.281 Y80.968 E6.05140
G1 X207.518 Y69.731 E6.54992
G1 X207.518 Y68.835 E6.57802
G1 X195.385 Y80.968 E7.11629
G1 X194.489 Y80.968 E7.14440
G1 X207.518 Y67.939 E7.72241
G1 X207.518 Y67.043 E7.75052
G1 X193.593 Y80.968 E8.36828
G1 X192.697 Y80.968 E8.39638
G1 X207.518 Y66.147 E9.05389
G1 X207.518 Y65.251 E9.08199
G1 X191.801 Y80.968 E9.77924
G1 X190.905 Y80.968 E9.80735
G1 X207.518 Y64.355 E10.54435
G1 X207.518 Y63.459 E10.57245
G1 X190.582 Y80.396 E11.32381
G1 X190.582 Y79.500 E11.35191
G1 X207.518 Y62.563 E12.10327
G1 X207.518 Y61.667 E12.13137
G1 X190.582 Y78.604 E12.88273
G1 X190.582 Y77.708 E12.91083
G1 X207.518 Y60.771 E13.66219
G1 X207.518 Y59.876 E13.69029
G1 X190.582 Y76.812 E14.44165
G1 X190.582 Y75.916 E14.46975
G1 X207.518 Y58.980 E15.22111
G1 X207.518 Y58.084 E15.24921
G1 X190.582 Y75.020 E16.00057
G1 X190.582 Y74.124 E16.02867
G1 X207.518 Y57.188 E16.78003
G1 X207.518 Y56.292 E16.80813
G1 X190.582 Y73.229 E17.55949
G1 X190.582 Y72.333 E17.58759
G1 X207.518 Y55.396 E18.33895
G1 X207.518 Y54.500 E18.36705
G1 X190.582 Y71.437 E19.11841
G1 X190.582 Y70.541 E19.14651
G1 X207.518 Y53.604 E19.89787
G1 X207.518 Y53.032 E19.91582
G1 X207.195 Y53.032 E19.92597
G1 X190.582 Y69.645 E20.66297
G1 X190.582 Y68.749 E20.69108
G1 X206.299 Y53.032 E21.38833
G1 X205.403 Y53.032 E21.41644
G1 X190.582 Y67.853 E22.07395
G1 X190.582 Y66.957 E22.10205
G1 X204.507 Y53.032 E22.71981
G1 X203.611 Y53.032 E22.74792
G1 X190.582 Y66.061 E23.32593
G1 X190.582 Y65.165 E23.35404
G1 X202.715 Y53.032 E23.89231
G1 X201.819 Y53.032 E23.92041
G1 X190.582 Y64.269 E24.41893
G1 X190.582 Y63.373 E24.44704
G1 X200.923 Y53.032 E24.90582
G1 X200.027 Y53.032 E24.93392
G1 X190.582 Y62.477 E25.35295
G1 X190.582 Y61.581 E25.38106
G1 X199.131 Y53.032 E25.76034
G1 X198.235 Y53.032 E25.78845
G1 X190.582 Y60.685 E26.12799
G1 X190.582 Y59.789 E26.15609
G1 X197.339 Y53.032 E26.45588
G1 X196.443 Y53.032 E26.48399
G1 X190.582 Y58.893 E26.74403
G1 X190.582 Y57.998 E26.77214
G1 X195.548 Y53.032 E26.99244
G1 X194.652 Y53.032 E27.02055
G1 X190.582 Y57.102 E27.20110
G1 X190.582 Y56.206 E27.22921
G1 X193.756 Y53.032 E27.37001
G1 X192.860 Y53.032 E27.39812
G1 X190.582 Y55.310 E27.49918
G1 X190.582 Y54.414 E27.52729
G1 X191.964 Y53.032 E27.58860
G1 X191.068 Y53.032 E27.61671
G1 X190.582 Y53.518 E27.63827
G1 E25.63827 F2400.00000
G92 E0
G1 X118.032 Y80.968 F7800.000
G1 E2.00000 F2400.00000
G1 F1800
G1 X118.518 Y80.482 E2.02147
G1 X118.518 Y79.590 E2.04932
G1 X117.140 Y80.968 E2.11018
G1 X116.248 Y80.968 E2.13802
G1 X118.518 Y78.698 E2.23826
G1 X118.518 Y77.807 E2.26611
G1 X115.357 Y80.968 E2.40574
G1 X114.465 Y80.968 E2.43359
G1 X118.518 Y76.915 E2.61260
G1 X118.518 Y76.023 E2.64045
G1 X113.573 Y80.968 E2.85884
G1 X112.681 Y80.968 E2.88669
G1 X118.518 Y75.131 E3.14447
G1 X118.518 Y74.239 E3.17232
G1 X111.789 Y80.968 E3.46948
G1 X110.897 Y80.968 E3.49733
G1 X118.518 Y73.347 E3.83388
G1 X118.518 Y72.455 E3.86173
G1 X110.005 Y80.968 E4.23766
G1 X109.114 Y80.968 E4.26551
G1 X118.518 Y71.564 E4.68083
G1 X118.518 Y70.672 E4.70868
G1 X108.222 Y80.968 E5.16338
G1 X107.330 Y80.968 E5.19123
G1 X118.518 Y69.780 E5.68532
G1 X118.518 Y68.888 E5.71317
G1 X106.438 Y80.968 E6.24664
G1 X105.546 Y80.968 E6.27449
G1 X118.518 Y67.996 E6.84735
G1 X118.518 Y67.104 E6.87520
G1 X104.654 Y80.968 E7.48744
G1 X103.762 Y80.968 E7.51529
G1 X118.518 Y66.212 E8.16692
G1 X118.518 Y65.321 E8.19477
G1 X102.871 Y80.968 E8.88578
G1 X101.979 Y80.968 E8.91363
G1 X118.518 Y64.429 E9.64402
G1 X118.518 Y63.537 E9.67187
G1 X101.782 Y80.274 E10.41097
G1 X101.782 Y79.382 E10.43882
G1 X118.518 Y62.645 E11.17792
G1 X118.518 Y61.753 E11.20577
G1 X101.782 Y78.490 E11.94487
G1 X101.782 Y77.598 E11.97272
G1 X118.518 Y60.861 E12.71182
G1 X118.518 Y59.969 E12.73967
G1 X101.782 Y76.706 E13.47877
G1 X101.782 Y75.814 E13.50662
G1 X118.518 Y59.078 E14.24572
G1 X118.518 Y58.186 E14.27357
G1 X101.782 Y74.922 E15.01267
G1 X101.782 Y74.031 E15.04052
G1 X118.518 Y57.294 E15.77962
G1 X118.518 Y56.402 E15.80747
G1 X101.782 Y73.139 E16.54657
G1 X101.782 Y72.247 E16.57442
G1 X118.518 Y55.510 E17.31352
G1 X118.518 Y54.618 E17.34137
G1 X101.782 Y71.355 E18.08047
G1 X101.782 Y70.463 E18.10832
G1 X118.518 Y53.726 E18.84742
G1 X118.518 Y53.032 E18.86911
G1 X118.321 Y53.032 E18.87527
G1 X101.782 Y69.571 E19.60567
G1 X101.782 Y68.679 E19.63352
G1 X117.429 Y53.032 E20.32453
G1 X116.538 Y53.032 E20.35238
G1 X101.782 Y67.788 E21.00401
G1 X101.782 Y66.896 E21.03185
G1 X115.646 Y53.032 E21.64410
G1 X114.754 Y53.032 E21.67195
G1 X101.782 Y66.004 E22.24480
G1 X101.782 Y65.112 E22.27265
G1 X113.862 Y53.032 E22.80613
G1 X112.970 Y53.032 E22.83398
G1 X101.782 Y64.220 E23.32807
G1 X101.782 Y63.328 E23.35591
G1 X112.078 Y53.032 E23.81062
G1 X111.186 Y53.032 E23.83847
G1 X101.782 Y62.436 E24.25379
G1 X101.782 Y61.545 E24.28164
G1 X110.295 Y53.032 E24.65757
G1 X109.403 Y53.032 E24.68542
G1 X101.782 Y60.653 E25.02197
G1 X101.782 Y59.761 E25.04982
G1 X108.511 Y53.032 E25.34698
G1 X107.619 Y53.032 E25.37483
G1 X101.782 Y58.869 E25.63261
G1 X101.782 Y57.977 E25.66046
G1 X106.727 Y53.032 E25.87886
G1 X105.835 Y53.032 E25.90671
G1 X101.782 Y57.085 E26.08572
G1 X101.782 Y56.193 E26.11356
G1 X104.943 Y53.032 E26.25319
G1 X104.052 Y53.032 E26.28104
G1 X101.782 Y55.302 E26.38128
G1 X101.782 Y54.410 E26.40913
G1 X103.160 Y53.032 E26.46999
G1 X102.268 Y53.032 E26.49783
G1 X101.782 Y53.518 E26.51930
G1 E24.51930 F2400.00000
G92 E0
G1 X101.200 Y81.663 F7800.000
G1 E2.00000 F2400.00000
G1 F1800
G1 X101.200 Y118.224 E2.27196
G1 X102.268 Y119.211 F7800.000
G1 F1800
G1 X101.782 Y119.697 E2.29364
G1 X101.782 Y120.598 E2.32203
G1 X102.959 Y119.421 E2.37451
G1 X103.650 Y119.630 E2.39728
G1 X101.782 Y121.498 E2.48057
G1 E0.48057 F2400.00000
G92 E0
G1 X104.112 Y119.168 F7800.000
G1 E2.00000 F2400.00000
G1 F1800
G1 X104.035 Y119.168 E2.00244
G1 X103.879 Y119.401 E2.01129
G1 X104.598 Y118.682 E2.04337
G1 X105.499 Y118.682 E2.07176
G1 X101.782 Y122.399 E2.23749
G1 X101.782 Y123.299 E2.26588
G1 X106.399 Y118.682 E2.47176
G1 X107.300 Y118.682 E2.50015
G1 X101.782 Y124.200 E2.74618
G1 X101.782 Y125.100 E2.77457
